material/.icons/material/vector-point.svg

<svg xmlns="http://www.w3.org/2000/svg" viewBox="0 0 24 24"><path d="M12 20l-5 2 5-11 5 11-5-2M8 2h8v3h6v2h-6v3H8V7H2V5h6V2m2 2v4h4V4h-4z"/></svg>

<?xml version="1.0" encoding="UTF-8"?><!DOCTYPE svg PUBLIC "-//W3C//DTD SVG 1.1//EN" "http://www.w3.org/Graphics/SVG/1.1/DTD/svg11.dtd"><svg xmlns="http://www.w3.org/2000/svg" xmlns:xlink="http://www.w3.org/1999/xlink" version="1.1" id="mdi-vector-point" width="24" height="24" viewBox="0 0 24 24"><path d="M12,20L7,22L12,11L17,22L12,20M8,2H16V5H22V7H16V10H8V7H2V5H8V2M10,4V8H14V4H10Z" /></svg>
